FINK
CUT[ICH HATT MAL EINEN SCHWEREN STAND]
REG[Europa, Mitteleuropa, Deutschland]
KEY[F0033  16 Bb 4/4]
MEL[-5_  -5_-3_-3_-5_-5_-3_-3_0_  1___-5__0_
    -5_  -4_-2_-2_-4_-4_-2_-2_0_  2___-4__0_
    -4_  -3_-5_-5_1_1__.3_  2_.12_.32__.
    -5_  -5_-7_-7_2_2__.4_  3_.23_.43__0_
    5_  5_.43_3_4_2_2_2_  2___0__.
    2_  3_.21_1_2_2_2_3_  1___0__0_ //] >>
FCT[Liebes - Lied, Scherz]
